public/images/hashed/44d647518f3849165aec52a637279a05.svg

<?xml version="1.0" encoding="UTF-8"?>
<svg width="80px" height="80px" viewBox="0 0 80 80" version="1.1" xmlns="http://www.w3.org/2000/svg" xmlns:xlink="http://www.w3.org/1999/xlink">
    <title>Icon-Architecture/64/Arch_AWS-Chatbot_64</title>
    <defs>
        <linearGradient x1="0%" y1="100%" x2="100%" y2="0%" id="linearGradient-1">
            <stop stop-color="#B0084D" offset="0%"></stop>
            <stop stop-color="#FF4F8B" offset="100%"></stop>
        </linearGradient>
    </defs>
    <g id="Icon-Architecture/64/Arch_AWS-Chatbot_64" stroke="none" stroke-width="1" fill="none" fill-rule="evenodd">
        <g id="Rectangle" fill="url(#linearGradient-1)">
            <rect x="0" y="0" width="80" height="80"></rect>
        </g>
        <path d="M37.9997933,23 L41.9993241,23 L41.9993241,21 L37.9997933,21 L37.9997933,23 Z M31.0006144,23 L35.0001452,23 L35.0001452,21 L31.0006144,21 L31.0006144,23 Z M24.0014355,23 L28.0009663,23 L28.0009663,21 L24.0014355,21 L24.0014355,23 Z M65.7065429,51.356 C65.4035784,52.062 64.7666531,52.595 63.9967435,52.844 L63.9967435,47.193 C64.6036723,47.409 65.1416092,47.798 65.5075662,48.354 C66.080499,49.225 66.1544903,50.319 65.7065429,51.356 L65.7065429,51.356 Z M15.2934571,51.356 C14.8455097,50.319 14.9185011,49.225 15.4924338,48.354 C15.8583908,47.798 16.3963277,47.409 17.0022566,47.193 L17.0022566,52.845 C16.2333469,52.596 15.5964216,52.062 15.2934571,51.356 L15.2934571,51.356 Z M67.1773703,47.254 C66.4364573,46.127 65.287592,45.372 63.9967435,45.109 L63.9967435,43.333 C63.9967435,39.841 61.3060591,37 57.9974473,37 L38.999676,37 L38.999676,39 L57.9974473,39 C60.2041884,39 61.9969781,40.944 61.9969781,43.333 L61.9969781,56.667 C61.9969781,59.056 60.2041884,61 57.9974473,61 L23.0015528,61 C20.7958116,61 19.002022,59.056 19.002022,56.667 L19.002022,43.333 C19.002022,40.944 20.7958116,39 23.0015528,39 L28.0009663,39 L28.0009663,37 L23.0015528,37 C19.6939409,37 17.0022566,39.841 17.0022566,43.333 L17.0022566,45.109 C15.7114081,45.372 14.5635427,46.127 13.8226297,47.254 C12.8727411,48.697 12.7387568,50.481 13.4556727,52.147 C14.0805994,53.598 15.4174426,54.614 17.0022566,54.91 L17.0022566,56.667 C17.0022566,60.159 19.6939409,63 23.0015528,63 L35.0001452,63 L35.0001452,69 L36.9999106,69 L36.9999106,63 L42.9992068,63 L42.9992068,69 L44.9989722,69 L44.9989722,63 L57.9974473,63 C61.3060591,63 63.9967435,60.159 63.9967435,56.667 L63.9967435,54.91 C65.5835573,54.614 66.9204005,53.598 67.5443273,52.147 C68.2612432,50.481 68.1272589,48.697 67.1773703,47.254 L67.1773703,47.254 Z M32.0004971,50 C32.0004971,51.654 30.6556549,53 29.000849,53 C27.347043,53 26.0012009,51.654 26.0012009,50 C26.0012009,48.346 27.347043,47 29.000849,47 C30.6556549,47 32.0004971,48.346 32.0004971,50 L32.0004971,50 Z M24.0014355,50 C24.0014355,52.757 26.2451723,55 29.000849,55 C31.7575256,55 34.0002625,52.757 34.0002625,50 C34.0002625,47.243 31.7575256,45 29.000849,45 C26.2451723,45 24.0014355,47.243 24.0014355,50 L24.0014355,50 Z M48.998503,50 C48.998503,48.346 50.3443451,47 51.9981511,47 C53.652957,47 54.9977992,48.346 54.9977992,50 C54.9977992,51.654 53.652957,53 51.9981511,53 C50.3443451,53 48.998503,51.654 48.998503,50 L48.998503,50 Z M56.9975646,50 C56.9975646,47.243 54.7548277,45 51.9981511,45 C49.2424744,45 46.9987376,47.243 46.9987376,50 C46.9987376,52.757 49.2424744,55 51.9981511,55 C54.7548277,55 56.9975646,52.757 56.9975646,50 L56.9975646,50 Z M20.0019047,14.852 C20.0019047,14.382 20.3838599,14 20.8538048,14 L45.9988549,14 L45.9988549,30.117 C45.9988549,30.604 45.6029014,31 45.1169584,31 L35.0001452,31 C34.44821,31 34.0002625,31.448 34.0002625,32 L34.0002625,37.188 L29.580781,31.394 C29.3908033,31.146 29.0968378,31 28.7858742,31 L20.8538048,31 C20.3838599,31 20.0019047,30.618 20.0019047,30.148 L20.0019047,14.852 Z M20.8538048,33 L28.2909323,33 L34.2062384,40.753 C34.3982158,41.006 34.695181,41.147 35.0001452,41.147 C35.1081325,41.147 35.21512,41.13 35.3211076,41.094 C35.7270599,40.957 36.0000279,40.576 36.0000279,40.147 L36.0000279,33 L45.1169584,33 C46.7067719,33 47.9986203,31.707 47.9986203,30.117 L47.9986203,13.524 C47.9986203,12.684 47.3157004,12 46.4747991,12 L20.8538048,12 C19.2819892,12 18.0021393,13.279 18.0021393,14.852 L18.0021393,30.148 C18.0021393,31.721 19.2819892,33 20.8538048,33 L20.8538048,33 Z" id="AWS-Chatbot_Icon_64_Squid" fill="#FFFFFF"></path>
    </g>
</svg>

<svg xmlns="http://www.w3.org/2000/svg" width="80" height="80"><defs><linearGradient id="a" x1="0%" x2="100%" y1="100%" y2="0%"><stop offset="0%" stop-color="#B0084D"/><stop offset="100%" stop-color="#FF4F8B"/></linearGradient></defs><g fill="none" fill-rule="evenodd"><path fill="url(#a)" d="M0 0h80v80H0z"/><path fill="#FFF" d="M38 23h4v-2h-4v2Zm-7 0h4v-2h-4v2Zm-6.999 0h4v-2h-4v2Zm41.706 28.356c-.303.706-.94 1.239-1.71 1.488v-5.651a2.984 2.984 0 0 1 1.51 1.161c.573.871.647 1.965.2 3.002Zm-50.414 0c-.447-1.037-.374-2.131.2-3.002a2.986 2.986 0 0 1 1.51-1.161v5.652c-.77-.249-1.407-.783-1.71-1.489Zm51.884-4.102a4.984 4.984 0 0 0-3.18-2.145v-1.776c0-3.492-2.69-6.333-6-6.333H39v2h18.997c2.207 0 4 1.944 4 4.333v13.334c0 2.389-1.793 4.333-4 4.333H23.002c-2.206 0-4-1.944-4-4.333V43.333c0-2.389 1.794-4.333 4-4.333H28v-2h-5c-3.307 0-5.999 2.841-5.999 6.333v1.776a4.981 4.981 0 0 0-3.18 2.145c-.95 1.443-1.083 3.227-.366 4.893.625 1.451 1.961 2.467 3.546 2.763v1.757c0 3.492 2.692 6.333 6 6.333H35v6h2v-6h6v6h1.999v-6h12.998c3.31 0 6-2.841 6-6.333V54.91c1.587-.296 2.923-1.312 3.547-2.763.717-1.666.583-3.45-.367-4.893ZM32 50c0 1.654-1.344 3-3 3-1.653 0-2.999-1.346-2.999-3s1.346-3 3-3c1.655 0 3 1.346 3 3Zm-7.999 0c0 2.757 2.244 5 5 5 2.757 0 5-2.243 5-5s-2.243-5-5-5c-2.756 0-5 2.243-5 5ZM49 50c0-1.654 1.345-3 3-3 1.654 0 2.999 1.346 2.999 3s-1.345 3-3 3c-1.654 0-3-1.346-3-3Zm7.999 0c0-2.757-2.243-5-5-5-2.756 0-5 2.243-5 5s2.244 5 5 5c2.757 0 5-2.243 5-5ZM20.002 14.852c0-.47.382-.852.852-.852h25.145v16.117a.884.884 0 0 1-.882.883H35a1 1 0 0 0-1 1v5.188l-4.42-5.794a1.003 1.003 0 0 0-.794-.394h-7.932a.853.853 0 0 1-.852-.852V14.852ZM20.854 33h7.437l5.915 7.753A.998.998 0 0 0 36 40.147V33h9.117a2.885 2.885 0 0 0 2.882-2.883V13.524c0-.84-.683-1.524-1.524-1.524H20.854a2.855 2.855 0 0 0-2.852 2.852v15.296A2.855 2.855 0 0 0 20.854 33Z"/></g></svg>
